!!!COM: Palestrina, Giovanni Perluigi da
!!!OPR: Missa Dilexi quoniam
!!!OMD: Credo
!!!OTL: Et in Spiritum
**kern	**kern	**kern	**kern	**kern
*Ibass	*Itenor	*Itenor	*Icalto	*Icant
!Bassus	!Tenor 2	!Tenor 1	!Altus	!Cantus
*clefF4	*clefGv2	*clefGv2	*clefG2	*clefG2
*k[]	*k[]	*k[]	*k[]	*k[]
*C:ion	*C:ion	*C:ion	*C:ion	*C:ion
*M3/2	*M3/2	*M3/2	*M3/2	*M3/2
=139	=139	=139	=139	=139
1C	1e	1c	1g	1cc
2C	2e	2c	2g	2cc
=140	=140	=140	=140	=140
2.G	2.d	2.B	2.g	2.dd
4G	4d	4B	4g	4dd
2G	2g	2B	2g	2dd
=141	=141	=141	=141	=141
1D	1f	1d	1a	1ff
2D	2d	2d	2a	2ff
=142	=142	=142	=142	=142
2.A	2.e	2.c#	2.a	2.ee
4A	4e	4c#	4a	4ee
2A	2e	2c#	2a	2ee
=143	=143	=143	=143	=143
2d	2f#	1r	2a	2dd
2d	2f#	.	2a	2dd
2B	2g	2r	2d	2dd
=144	=144	=144	=144	=144
2c	2e	1r	2g	2cc
1A	1c	.	1f#	1cc
.	.	2r	.	.
=145	=145	=145	=145	=145
1G	2d	2r	2g	2b
.	2r	2g	2b	2dd
2r	2r	2g	2b	2dd
=146	=146	=146	=146	=146
1r	1r	1c	1cc	1ee
2r	2r	2d	2b	2dd
=147	=147	=147	=147	=147
1r	1r	2.f	2.a	2.cc
.	.	4f	4a	4cc
2r	2r	2e	2g	2cc
=148	=148	=148	=148	=148
1r	1r	1d	1a	1ff
2r	2r	2c	2cc	2ee
=149	=149	=149	=149	=149
1r	1r	1g	1b	1dd
2r	2r	2g	2b	2dd
=150	=150	=150	=150	=150
1c	1e	2r	1r	2r
.	.	2g	.	2cc
2c	2e	2g	2r	2cc
=151	=151	=151	=151	=151
1F	1f	1a	1r	1cc
2F	2f	2a	2r	2cc
=152	=152	=152	=152	=152
2G	2d	2g	1r	2b
2A	2c	2e	.	2a
2F	2A	2d	2r	2a
=153	=153	=153	=153	=153
1E	1B	1e	1r	1g#
2r	2r	2r	2r	2r
=154	=154	=154	=154	=154
2.C	2.c	2.e	2.g	2.ee
4C	4c	4e	4g	4ee
2C	2c	2e	2g	2ee
=155	=155	=155	=155	=155
2G	2d	2B	2g	2dd
1C	1e	1c	1g	1cc
=156	=156	=156	=156	=156
1G	1d	1B	1g	1dd
2C	2e	2c	2e	2cc
=157	=157	=157	=157	=157
2.C	2.g	2.e	2.c	2.ee
4C	4g	4e	4c	4ee
2C	2c	2e	2g	2ee
=158	=158	=158	=158	=158
2G	2d	2B	2g	2dd
1C	1e	1c	1g	1cc
=159	=159	=159	=159	=159
2G	2d	2B	2g	2dd
2c	2e	2r	2g	2r
2c	2e	2r	2g	2r
=160	=160	=160	=160	=160
1A	1f#	1r	1a	1r
2G	2g	2r	2b	2r
=161	=161	=161	=161	=161
1c	1e	2r	2g	2r
.	.	2c	2cc	2ee
2r	2r	2c	2cc	2ee
=162	=162	=162	=162	=162
1r	1r	1d	1a	1ff#
2r	2r	2e	2g	2gg
=163	=163	=163	=163	=163
1r	1r	1c	1cc	1ee
2r	2r	2G	2b	2dd
=164	=164	=164	=164	=164
1r	1r	2A	2a	2cc
.	.	1e	1g#	1b
2r	2r	.	.	.
*-	*-	*-	*-	*-
!!!CDT: 1525/^1526/-1594/2/2
!!!OCY: Italia
!!!AGN: Mass (Parody)
!!!AST: renaissance, vocal
!!!ASW: Motet (Maffoni)
!!!PWK: Masses, Book 6
!!!RNB: Cadence finals: G,A
!!!YOR: Le Opere Complete, v. 21, p. 105
!!!YOO: Rome, Italy: Fratelli Scalera
!!!END: 1992//
!!!EED: John Miller
!!!YEC: Copyright 2000, John Miller
!!!YEN: United States of America
!!!YEM: Rights to all derivative electronic formats reserved.
!!!YEM: Refer to licensing agreement for further details.
!!!YEM: This file must be accompanied by the licensing agreement.
!!!YEM: A copy of the licensing agreement may be found at http://www.music-cog.ohio-state.edu/HumdrumDatabases/Palestrina/license.txt
!!!EMD: converted to Humdrum by Bret Aarden
